X: 28773
T: My Love Is An Arbutus
R: waltz
M: 3/4
K: Gmajor
GA|Bcd2A2|GAB2AB|GED2D2|D4GE|
D2D2EG|A2A2Bc|d2c2B2|A3B/A/ GE|
D2D2EG|A2A2Bc|dB ed cB|A4GA|
Bc d2A2|GA B2 AB|GE D2D2|D4:|AB|
cd e2 dc|Bc d2cB|AG A2^c2|d4dc|
BA G2cB|AG F2GF|EDC2E2|D4|:GA|
Bcd2A2|GAB2AB|GED2D2|D4GE|
D2D2EG|A2A2Bc|d2c2B2|A3B/A/ GE|
D2D2EG|A2A2Bc|dB ed cB|A4GA|
Bc d2A2|GA B2 AB|GE D2D2|D4:|

